!!!COM:	Bach, Johann Sebastian
!!!CDT:	1685/02/21/-1750/07/28/
!!!OTL@@DE:	Nun komm, der Heiden Heiland
!!!SCT:	BWV 36(2)/8
!!!PC#:	28
!!!AGN:	chorale
**kern	**kern	**kern	**kern
*ICvox	*ICvox	*ICvox	*ICvox
*Ibass	*Itenor	*Ialto	*Isoprn
*I"Bass	*I"Tenor	*I"Alto	*I"Soprano
*	*oclefC4	*oclefC3	*oclefC1
*clefF4	*clefGv2	*clefG2	*clefG2
*k[f#c#]	*k[f#c#]	*k[f#c#]	*k[f#c#]
*b:	*b:	*b:	*b:
*M4/4	*M4/4	*M4/4	*M4/4
*met(c)	*met(c)	*met(c)	*met(c)
*MM100	*MM100	*MM100	*MM100
=1-	=1-	=1-	=1-
8BL	4d	4f#	4b
8AJ	.	.	.
4G	8c#L	4e	4b
.	8BJ	.	.
8F#L	4c#	4f#	4a
8E	.	.	.
8D	4B	8f#L	4dd
8BBJ	.	16gL	.
.	.	16aJJ	.
=2	=2	=2	=2
8EL	4.B	8gL	8cc#L
8D	.	8f#J	8bJ
8E	.	4e	4cc#
8F#J	8A#	.	.
2BB;	2F#;	2d;	2b;
=3	=3	=3	=3
4BB	8dL	4.f#	8bL
.	8c#J	.	8cc#J
4B	4B	.	4dd
.	.	8g#	.
8AnXL	4c#	4.a	4ee
8GnXJ	.	.	.
4F#	4d	.	4dd
.	.	8b	.
=4	=4	=4	=4
4E	4G	4cc#	4ee
4D	8AL	8ddL	4ff#
.	16BL	8f#J	.
.	16cJJ	.	.
2G;	2B;	2g;	2dd;
=5	=5	=5	=5
8F#L	4A	4a	4dd
8E	.	.	.
8D	4e	4a	4ee
8C#J	.	.	.
4D	8dL	8aL	8ff#L
.	8c#J	8a#J	8eeJ
8GL	4B	4b	4dd
8F#J	.	.	.
=6	=6	=6	=6
4E	4g	8cc#L	8eeL
.	.	8bJ	8ddJ
4F#	8c#L	4a#	4cc#
.	8f#J	.	.
2BB;	2d;	2f#;	2b;
=7	=7	=7	=7
8BL	4d	4f#	4b
8AJ	.	.	.
4G#	8c#L	4e#	4b
.	8BJ	.	.
8F#L	4c#	8f#L	4a
8E	.	8g#J	.
8F#	4f#	8aL	4dd
8G#J	.	8bJ	.
=8	=8	=8	=8
8A#L	8eL	8f#L	8cc#L
8BJ	8dJ	[8bJ	8bJ
4F#	16c#LL	8bL]	4cc#
.	16dJ	.	.
.	8eJ	8a#J	.
2BB;	2d#;	2f#;	2b;
==	==	==	==
*-	*-	*-	*-
!!!YOR1: 371 vierstimmige Choralges&auml;nge von Johann Sebastian Bach, 
!!!YOR2: 4th ed. by Alfred D&ouml;rffel (Leipzig: Breitkopf und H&auml;rtel, 
!!!YOR2: c.1875). 178 pp. Plate "V.A.10".  reprint: J.S. Bach, 371 Four-Part 
!!!YOR4: Chorales (New York: Associated Music Publishers, Inc., c.1940).
!!!SMS: B&H, 4th ed, Alfred D&ouml;rffel, c.1875, plate V.A.10
!!!EED:  Craig Stuart Sapp
!!!EEV:  2009/05/22
